X: 20
T:The Bent Pin
% Nottingham Music Database
S:Trad, arr Phil Rowe
M:6/8
K:D
"A7"A|"D"D2F A2d|\
%  Couldn't find expected triplet here
"G7"^A2\
P:5
B \
P:4
"D"=AFD|\
%  Couldn't find expected triplet here
"G7"^A2B "D"=AFD|"E7"
P:4
=FDF "A7"EDB,|"D"D2F A2d|\
%  Couldn't find expected triplet here
"G7"^A2B "D"=AFD|"E7"=FDF "A7"EDB,|"D"D3 -D2::
d|1  [1"G7"B2d e2=f| [1"D"f  [2dB A2d|"G7"B2d e2=f|"D"fdB A2d| [1"G7"B=Fd e2=f\
| [1"D"f  [2dB "Bm"ABA|\
%  Couldn't find expected triplet here
"E7"=FD
P:4
F "A7"EDB,|"D"D3 -D2:|
